X:1
T: Muir o' Gellan
C:Peter Milne
R:Strathspey
Q: 128
K:A
M:4/4
L:1/16
|:A,3C E3C D3F B3D|C3E A3B c4 A2Bc|d3F Bd3 c3E Ac3|((3B2c2B2) ((3A2G2F2) ((3E2F2E2) ((3D2C2B,2) |
A,3C E3C D3F B3D|C3E A3B c4 A2Bc|d3F Bd3 c3E Ac3|BE3 GB3 A6 g2|
a3e fgae d3c A3c|d3B c3A B3G E3g|a3e fgaf e3c A3c|BE3 GB3 A4 A3g|
a3e fgae d3c A3c|df3 ca2c B3G E3G|FA3 GB3 ((3A2a2g2) ((3f2e2d2) |((3c2B2A2) ((3B2A2G2) ((3A2F2E2) ((3C2D2B,2) :|
